X:32
T:Boyne Hunt, The
R:reel
C:Miss Stirling, Scotland
H:The title of the original tune is "The Perthshire Hunt"
D:Oisin: Over the Moor to Maggie.
Z:id:hn-reel-32
M:C|
K:D
A2FA DAFA|DAFA BE~E2|A2FA DAFA|ABde fedB|
A2GA FAEA|DAFA BE~E2|A2FA DAFA|ABde fdde||
|:faa^g a2af|gfga bgeg|1 faa^g a2af|e2de fdde:|2 fgfe dedB|ABde fedB||
<end>
<start>
